X: 22314
T: La Sai
R: jig
M: 6/8
K: Dmajor
F'A'G' F'E'D'|BAF E2D|B,DE ABD'|E'D'B A2A'/G/'|
F'2A' F'E'D'|BAF E2D|B,DD EAA|AD'C'D3:|
B3 BAF|ABC' D'C'A|B3 BAF|AAA AD'C'|
B3 BAF|AC'D' A'2G'|F'2A' F'E'D'|BAF D3:|

